X:0482
T:Miss Wade's Delight.
M:2/4
L:1/16
Q:1/4=120
I: :: ::
Z:Jack Campin * www.campin.me.uk * 2009
K:D
a3a  a2g2|f2f2 f2ef|g2e2 e2de|f2d2 defg|
a3a  a2g2|f2f2 f2ef|g4   e4  |d4-  d4 ::
f2e2 f2d2|gfga g4  |A4   B2c2|dcde d2A2|
f2e2 f2d2|gfga g3e |A4   B2c2|d4-  d4 :|
<end>
<start>
